public/files/perm/themes/base/flux/icons/verifiedsvg.svg

<svg enable-background="new 0 0 24 24" fill="#282573" height="40" viewBox="0 0 24 24" width="40" xmlns="http://www.w3.org/2000/svg"><path d="m0 0h24v24h-24z" fill="none"/><path d="m23 12-2.44-2.79.34-3.69-3.61-.82-1.89-3.2-3.4 1.46-3.4-1.46-1.89 3.19-3.61.81.34 3.7-2.44 2.8 2.44 2.79-.34 3.7 3.61.82 1.89 3.19 3.4-1.47 3.4 1.46 1.89-3.19 3.61-.82-.34-3.69zm-12.91 4.72-3.8-3.81 1.48-1.48 2.32 2.33 5.85-5.87 1.48 1.48z"/></svg>

<svg xmlns="http://www.w3.org/2000/svg" enable-background="new 0 0 24 24" height="40px" viewBox="0 0 24 24" width="40px" fill="#282573"><g><rect fill="none" height="24" width="24"/></g><g><path d="M23,12l-2.44-2.79l0.34-3.69l-3.61-0.82L15.4,1.5L12,2.96L8.6,1.5L6.71,4.69L3.1,5.5L3.44,9.2L1,12l2.44,2.79l-0.34,3.7 l3.61,0.82L8.6,22.5l3.4-1.47l3.4,1.46l1.89-3.19l3.61-0.82l-0.34-3.69L23,12z M10.09,16.72l-3.8-3.81l1.48-1.48l2.32,2.33 l5.85-5.87l1.48,1.48L10.09,16.72z"/></g></svg>
